X:1
T:Da pacem
T:Claudin de Sermisy
T:Source : Liber Motettorum VII---Paris---P.Attaignant---1534. Editor : André Vierendeels ( 25/08/17).
T:Notes : Original clefs : C1, C1, C4 Editorial accidentals above the staff Original note values have been halved Signed "Claudin"
T:Da pacem
T:©
T:©
T:©
T:©
C:Claudin de Sermisy
Z:©
%%score [ 1 2 3 ]
L:1/8
Q:1/4=120
M:2/2
K:F
V:1 treble nm="Soprano 1" snm="S 1"
V:2 treble nm="Soprano 2" snm="S 2"
V:3 treble-8 nm="Tenor" snm="T"
V:1
 z8 | z8 | z8 | z8 | G8 | F4 G4 | B8 | c4 B4 | A6 B2 | c4 BGAB | cBAG A4 | G4 z2 B2 | BAGF GFED | %13
w: ||||Da|pa- cem,|Do-|mi- ne,|in di-|e- bus _ _ _|no- * * * *|stris, quis|nos _ _ _ _ _ _ _|
 E2 D3 C F2- | F2 E2 F4- | F4 z4 | B3 c d2 e2- | e2 d4 c2 | d8- | d8 | z4 z2 d2 | d4 c2 B2 | %22
w: _ _ _ _|* * est|_|a- * * li-||us,|_|qui|pu- gnet pro|
 c4 B4 | z2 F4 F2 | EDEF G2 G2 | D2 F2 E4 | D2 FE FG A2- | A2 G4 F2 | G2 B4 B2 | A2 c2 B3 A/G/ | %30
w: no- bis|ni- si|tu _ _ _ _ De-|us no- *|||ster, ni- si|tu, De- * * *|
 FEFG A2 B2 | cBAG A4 | G4 D4 | D2 C2 E2 D2- | DCDE F2 D2 | E2 G4 F2 | G8 |] %37
w: * * * * * us|no- * * * *|* ster,|ni- si tu De-|* * * * * us|no- * *|ster.|
V:2
 z8 | z8 | G8 | F4 G4 | B8 | c4 B3 A | G2 D2 G2 G2 | F2 E2 D3 E | FG F4 ED | E4 DEFG | %10
w: ||Da|pa- cem,|Do-|mi- ne, in|di- e- bus vo-||||
"^#" A2 G4 F2 | G8 | z2 B2 BAGF | G2 G2 F4 | B3 c d2 c2- | c2 B3 AGF | G2 F4 G2- | GF D2 E4 | %18
w: |stris,|quis non _ _ _|_ est _|a _ _ li-||||
 D2 A2 A4 | G2 F3 EFG | A2 B2 F2 G2 | DEFG A2 B2- | B2 A2 B4- | B4 z4 | z4 z2 B2- | B2 B2 A2 c2 | %26
w: us, qui pu-|gnet pro no- * *|||* * bis,|_|ni-|* si tu De-|
 B2 A3 GFE | F2 G2 A4 | G4 z2 D2 |"^b" D2 C2 E2 D2- | DCDE F2 D2 | E2 G4 F2 | G2 B4 B2 | %33
w: us no- * * *||ster, ni-|si tu De- *|* * * * * us|no- * *|ster, ni- si|
 A2 c2 B3 A/G/ | FEFG A2 B2 | cBAG A4 | G8 |] %37
w: tu De- * * *|* * * * * us|no- * * * *|ster.|
V:3
 G8 | F4 G4 | B4 c2 B2- | B2 A2 B2 c2 | B2 G3 ABG | A4 G4- | G8 | z2 C2 G2 G2 | FEDC D4 | %9
w: Da|pa- cem,|Do- mi- ne|_ in di- e-|bus no- * * *|* stris,|_|in di- e-|bus _ _ _ _|
 CDEF G2 F2- | F2 G2 D4 | G8- | G4 z4 | z2 B2 BAGF | G2 G2 F4 | B3 c d2 e2- | e2 d4 c2 | %17
w: no- * * * * *||stris,|_|quis non _ _ _|_ _ est|a- * * li-||
 d3 c/B/ A4 | D8 | z2 d2 d4 | c2 B3 A G2- | GFDE F2 G2 | F4 z2 B2 | B2 B2 AGAB | c2 c2 G3 A | %25
w: |us,|qui pu-|gnet pro _ _|_ _ _ _ no- *|bis, ni-|si tu De- * * *|* us no- *|
 Bc d4 c2 | d8- | d8 | z2 G4 G2 | F2 A2 GFGA | B3 A F2 G2 |"^#" C2 E2 D4 | z2 G4 G2 | F2 A2 GFGA | %34
w: |ster,|_|ni- si|tu De- * * * *|* * * us|no- * ster,|ni- si|tu De- * * * *|
 B3 A F2 G2 |"^b" C2 E2 D4 | G8 |] %37
w: * * * us|no- * *|ster|

